X: 1
T:The Green Flag is Flying -- Reel
M:2/4
L:1/16
R:reel
B:Ryan's Mammoth Collection
N:259
Z:Contributed by Ray Davies,  ray:davies99.freeserve.co.uk
K:G
u(GE)|\
.D2(B,D) .G2(GB) | .A2(AB) cBAG | .E2.c2 BcdB | G3A BAGE |
.D2(B,D) .G2(GB) | .A2(AB) cBAG | .E2.c2 BcdB | G4- G2:|
|:u(Bd)|\
cBcd efge | .d2(Bd) cBAG | cBcd efge | d3B .A2(Bd) |
cBcd efge | .d2(Bd) cBAG | E3c BcdB | G3A G2:|
